src/assets/images/episode.svg

<svg width="40" height="33" fill="none" xmlns="http://www.w3.org/2000/svg"><path d="M40 29v4H0v-4h40ZM0 0l16 10L0 20V0Zm40 15v4H20v-4h20Zm0-14v4H20V1h20Z" fill="url(#a)"/><defs><linearGradient id="a" x1="-3.765" y1="-6.543" x2="44.676" y2="3.242" gradientUnits="userSpaceOnUse"><stop stop-color="#9DFE00"/><stop offset="1" stop-color="#14D9E6"/></linearGradient></defs></svg>

<svg width="40" height="33" viewBox="0 0 40 33" fill="none" xmlns="http://www.w3.org/2000/svg">
<path d="M40 29V33H0V29H40ZM0 0L16 10L0 20V0ZM40 15V19H20V15H40ZM40 1V5H20V1H40Z" fill="url(#paint0_linear_2_1566)"/>
<defs>
<linearGradient id="paint0_linear_2_1566" x1="-3.7647" y1="-6.54311" x2="44.6761" y2="3.24157" gradientUnits="userSpaceOnUse">
<stop stop-color="#9DFE00"/>
<stop offset="1" stop-color="#14D9E6"/>
</linearGradient>
</defs>
</svg>
